X:1987
T:Poll an Madra Uisce
T:Otter's Holt, The
O:ireland
S:irtrad-l, Ethan Hack, 10/94
D:Bothy Band: "Old Hag You Have Killed Me"
N:3rd tune in the "Music in the Glen" Set
N:In Bulmer and Sharpley as "the Aughdarra"
M:C|
K:Bm
fBBA FEFB|A2 FB ABde|fBBA FEFA|B2BA B2de|fBBA FEFB|A2FB ABde|f2af effe|
[1dBAF B2de:|
[2dBAF B3A|:d3f a2fa|bfaf effe|d3f a2fa|bfaf e2fe|d3f a2fa|bfaf efde|fBBA FEFA|
ABBA B3a:|
